apps/symbolic/web-browser-symbolic.svg

<?xml version="1.0" encoding="UTF-8" standalone="no"?>
<svg
   xmlns:dc="http://purl.org/dc/elements/1.1/"
   xmlns:cc="http://creativecommons.org/ns#"
   xmlns:rdf="http://www.w3.org/1999/02/22-rdf-syntax-ns#"
   xmlns:svg="http://www.w3.org/2000/svg"
   xmlns="http://www.w3.org/2000/svg"
   version="1.1"
   width="16"
   height="16"
   id="svg3862">
  <defs
     id="defs3864" />
  <metadata
     id="metadata3867">
    <rdf:RDF>
      <cc:Work
         rdf:about="">
        <dc:format>image/svg+xml</dc:format>
        <dc:type
           rdf:resource="http://purl.org/dc/dcmitype/StillImage" />
        <dc:title />
      </cc:Work>
    </rdf:RDF>
  </metadata>
  <g
     id="layer1">
    <path
       d="M 8,0 C 3.581722,0 0,3.581722 0,8 c 0,4.418278 3.2313191,7.072346 7.0125009,7.900571 L 7.0311659,15.04505 C 5.9194115,14.932426 5.7913437,14.728903 4.8437549,14.25 c 0.051459,-0.03988 0.125,-0.09375 0.125,-0.09375 L 4.90625,14.03125 5.125,13.8125 5.1875,13.59375 5.53125,13.5 5.78125,12.8125 5.71875,12.65625 5.875,12.375 6.28125,12.28125 6.46875,11.8125 6.4375,11.1875 6.75,10.75 6.78125,10.3125 C 6.3548156,10.09675 5.954505,9.878395 5.53125,9.65625 L 5.3125,9.21875 4.9375,9.125 4.71875,8.5625 4.21875,8.625 3.75,8.28125 l -0.46875,0.4375 0,0.0625 C 3.1397511,8.739582 2.9697439,8.735292 2.84375,8.65625 L 2.75,8.34375 2.75,8.03125 2.4375,8.0625 C 2.463514,7.852424 2.505061,7.616289 2.53125,7.40625 l -0.1875,0 -0.1875,0.25 L 1.96875,7.75 1.71875,7.59375 1.6875,7.28125 1.71875,6.90625 2.125,6.625 2.4375,6.625 2.5,6.4375 2.875,6.53125 3.15625,6.875 3.21875,6.28125 3.71875,5.875 3.875,5.40625 4.25,5.25 4.46875,4.96875 4.9375,4.875 5.15625,4.5 l -0.6875,0 0.4375,-0.1875 0.3125,0 L 5.625,4.15625 5.6875,4.5625 5.875,4.28125 5.65625,4.125 5.71875,3.96875 5.5625,3.8125 5.375,3.78125 5.4375,3.59375 5.28125,3.3125 4.96875,3.4375 5.03125,3.1875 4.65625,2.96875 4.375,3.5 4.40625,3.65625 4.125,3.78125 3.9375,4.1875 3.875,3.8125 3.375,3.625 3.28125,3.34375 3.9375,2.96875 4.21875,2.6875 4.25,2.34375 4.09375,2.25 l -0.0625,0 C 4.2587403,2.0921048 4.4727365,1.9430103 4.71875,1.8125 l 0,0.09375 -0.21875,0.1875 -0.15625,0.375 0.3125,0 0.09375,-0.25 0.03125,-0.0625 C 4.9069727,2.065532 5.028199,1.96232 5.15625,1.875 l 0.3125,0.09375 C 5.6630105,2.103411 5.8368285,2.240542 6.03125,2.375 L 6.34375,2.09375 6,1.96875 5.875,1.65625 5.3125,1.59375 l 0,-0.03125 0,-0.03125 c 0.00905,-0.00377 0.022179,0.00373 0.03125,0 L 5.53125,1.59375 5.6875,1.4375 5.96875,1.375 C 6.039363,1.33996 6.1162225,1.30977 6.1875,1.28125 L 6,1.46875 6.65625,1.9375 l 0,0.28125 L 6.40625,2.5 6.75,3.1875 7,3.0625 7.28125,2.59375 C 7.7007355,2.461422 8.104073,2.308025 8.5,2.125 L 8.46875,2.3125 8.65625,2.4375 9,2.1875 8.84375,2 8.59375,2.125 8.5625,2.09375 8.90625,1.15625 8.5625,1.03125 C 9.8288346,1.1318575 10.981939,1.56508 11.96875,2.25 l -0.28125,-0.0625 -0.34375,-0.125 -0.5,0.125 -0.3125,0.21875 0,0.1875 L 10,2.9375 l 0.125,0.5 0.28125,-0.21875 0.1875,0.21875 0.21875,0.125 0.125,-0.375 L 10.875,2.96875 10.9375,2.8125 11.25,2.53125 l 0.125,0 -0.125,0.3125 0,0.28125 C 11.372979,3.09085 11.499148,3.07847 11.625,3.0625 L 11.28125,3.3125 11.25,3.46875 10.84375,3.8125 10.4375,3.71875 l 0,-0.25 -0.1875,0.125 0.09375,0.21875 -0.3125,0 L 9.875,4.09375 9.6875,4.3125 9.3125,4.375 9.53125,4.59375 9.59375,4.8125 9.3467741,4.7782259 l 0.4375,0.40625 L 10,5.0625 l 0.03125,-0.125 0.40625,-0.09375 0.21875,0.25 0.25,0.125 L 10.75,5.5 l 0.21875,-0.0625 0.125,-0.28125 -0.28125,-0.3125 0.125,0 0.25,0.21875 0.0625,0.3125 0.21875,0.28125 0.0625,-0.40625 0.125,-0.0625 C 11.788583,5.327668 11.888544,5.4985 12,5.65625 L 12.4375,5.6875 12.65625,5.84375 12.5625,6 l -0.25,0.21875 -0.34375,0 L 11.5,6.0625 l -0.21875,0.03125 -0.1875,0.1875 -0.5,-0.5 L 10.25,5.6875 10.22238,5.654436 l 3.314314,3.3125 c 0,0 0.168224,-0.1363256 0.525807,-0.3106856 l 0,-0.21875 C 13.901651,8.45818 13.751139,8.48857 13.59375,8.5 l 0.3125,-0.34375 0.4375,-0.3125 0.25,-0.28125 0,-0.28125 C 14.54017,7.178163 14.491441,7.040587 14.4375,6.9375 L 14.21875,7.21875 14.0625,7 l -0.25,-0.1875 0,-0.375 0.28125,0.3125 0.3125,-0.03125 c 0.140211,0.129874 0.283271,0.227131 0.40625,0.375 l 0.09375,-0.125 C 14.956345,7.3066221 15,7.6481946 15,8 c -0.112621,1.1232752 0.03718,1.1541122 -0.477822,2.095564 l 0.67137,0.789518 C 15.891599,9.7433916 15.987675,9.5164411 16,8 16,3.581722 12.418278,0 8,0 z m -3.25,2.21875 0.28125,0.21875 0.25,0 0,-0.25 L 5,2.0625 z M 3.8125,2.40625 3.75,2.5625 c 0,0 -0.1027341,0.014953 -0.1875,0.03125 0.080768,-0.066656 0.1662507,-0.1244571 0.25,-0.1875 z M 12.25,2.4375 c 0.06485,0.049824 0.124471,0.1042336 0.1875,0.15625 L 12.1875,2.875 11.84375,2.5 l 0.34375,0 z m -3.03125,0.40625 0,0.1875 0.125,0.15625 0,0.28125 L 9.28125,3.875 9.59375,3.8125 9.84375,3.59375 9.625,3.375 C 9.556461,3.18878 9.4920315,3.022357 9.40625,2.84375 z M 8.9375,3.25 8.75,3.3125 8.78125,3.6875 9.0625,3.53125 z m 3.65625,3.34375 0.28125,0.34375 0.375,0.78125 0.21875,0.25 -0.125,0.28125 0.21875,0.25 c -0.09128,0.0061 -0.187428,0 -0.28125,0 C 13.110809,8.134572 12.973543,7.757297 12.84375,7.375 L 12.625,7.125 12.5,6.65625 z M 1.03125,7.5 C 1.0729857,7.6004243 1.25,7.90625 1.25,7.90625 L 1.78125,8.21875 2.34375,8.375 2.5625,8.6875 2.9375,8.96875 3.125,8.90625 3.28125,9 l 0,0.03125 -0.1875,0.59375 -0.15625,0.21875 0.03125,0.125 -0.125,0.46875 0.46875,0.84375 0.46875,0.4375 L 4,12 3.96875,12.65625 4.125,13 3.96875,13.6875 c 0,0 0.00249,0.0238 0,0.03125 C 2.1796562,12.450692 1,10.359796 1,8 1,7.8317746 1.0195795,7.6652555 1.03125,7.5 z"
       id="path6534"
       style="color:#bebebe;fill:#bebebe;fill-opacity:1;fill-rule:nonzero;stroke:none;stroke-width:1;marker:none;visibility:visible;display:inline;overflow:visible;enable-background:accumulate" />
    <path
       d="m 8,4.8424298 0,10.3800002 2.344,-2.2882 1.3394,2.7346 c 0.32808,0.73962 2.0337,0.14492 1.5487,-0.84412 l -1.3255,-2.8393 2.9579,0 L 8,4.8418098 z"
       id="path3049"
       style="color:#000000;fill:#bebebe;display:block" />
  </g>
</svg>

<?xml version="1.0" encoding="UTF-8" standalone="no"?>
<svg
   xmlns:dc="http://purl.org/dc/elements/1.1/"
   xmlns:cc="http://creativecommons.org/ns#"
   xmlns:rdf="http://www.w3.org/1999/02/22-rdf-syntax-ns#"
   xmlns:svg="http://www.w3.org/2000/svg"
   xmlns="http://www.w3.org/2000/svg"
   id="svg8"
   version="1.1"
   width="16"
   height="16">
  <metadata
     id="metadata14">
    <rdf:RDF>
      <cc:Work
         rdf:about="">
        <dc:format>image/svg+xml</dc:format>
        <dc:type
           rdf:resource="http://purl.org/dc/dcmitype/StillImage" />
      </cc:Work>
    </rdf:RDF>
  </metadata>
  <defs
     id="defs12" />
  <g
     id="g6"
     fill="#666">
    <path
       id="path2"
       overflow="visible"
       color="#bebebe"
       style="marker:none"
       d="M8 0a8 8 0 0 0-8 8c0 4.418 3.231 7.072 7.013 7.9l.018-.855c-1.112-.113-1.24-.316-2.187-.795.051-.04.125-.094.125-.094l-.063-.125.219-.218.063-.22.343-.093.25-.687-.062-.157.156-.28.406-.095.188-.468-.031-.625.312-.438.031-.437c-.426-.216-.826-.434-1.25-.657l-.218-.437-.375-.094-.22-.562-.5.062-.468-.344-.469.438v.062c-.141-.041-.311-.046-.437-.125l-.094-.312V8.03l-.312.032c.026-.21.067-.447.093-.657h-.187l-.188.25-.187.094-.25-.156-.031-.313.03-.375.407-.28h.313l.062-.188.375.093.281.344.063-.594.5-.406.156-.469.375-.156.219-.281.469-.094.218-.375H4.47l.437-.187h.313l.406-.157.063.407.187-.282-.219-.156.063-.156-.156-.156-.188-.032.063-.187-.157-.281-.312.125.062-.25-.375-.22-.281.532.031.156-.281.125-.188.407-.062-.375-.5-.188-.094-.281.657-.375.28-.281.032-.344-.156-.094H4.03c.228-.158.442-.307.688-.437v.093l-.219.188-.156.375h.312l.094-.25.031-.063c.126-.09.247-.194.375-.28l.313.093c.194.135.368.272.562.406l.313-.281L6 1.969l-.125-.313-.563-.062V1.53c.01-.004.023.004.032 0l.187.063.156-.156.282-.063c.07-.035.147-.065.218-.094L6 1.47l.656.469v.281l-.25.281.344.688.25-.125.281-.469c.42-.132.823-.286 1.219-.469l-.031.188.187.125.344-.25L8.844 2l-.25.125-.032-.031.344-.937-.344-.125A6.89 6.89 0 0 1 11.97 2.25l-.282-.062-.343-.125-.5.125-.313.219v.187L10 2.938l.125.5.281-.219.188.219.218.125.125-.375-.062-.219.062-.156.313-.281h.125l-.125.312v.281c.123-.034.25-.046.375-.062l-.344.25-.031.156-.406.344-.407-.094v-.25l-.187.125.094.219h-.313l-.156.281-.188.219-.375.062.22.22.062.218-.247-.034.437.406.216-.122.031-.125.406-.094.22.25.25.125-.157.281.219-.062.125-.281-.282-.313h.125l.25.219.063.312.219.282.062-.407.125-.062c.132.14.232.31.344.469l.437.03.22.157-.095.156-.25.22h-.343l-.47-.157-.218.031-.187.188-.5-.5-.344-.094-.028-.033 3.315 3.312s.168-.136.525-.31v-.22c-.16.021-.31.052-.468.063l.312-.343.438-.313.25-.281v-.281c-.054-.104-.103-.241-.157-.344l-.218.281L14.062 7l-.25-.187v-.375l.282.312.312-.03c.14.129.283.226.406.374l.094-.125c.05.338.094.68.094 1.031-.113 1.124.037 1.154-.478 2.096l.671.79c.698-1.142.795-1.37.807-2.886a8 8 0 0 0-8-8zM4.75 2.219l.281.219h.25v-.25L5 2.062zm-.938.187l-.062.156s-.103.015-.188.032c.081-.067.167-.125.25-.188zm8.438.031c.065.05.124.105.188.157l-.25.281-.344-.375h.344zm-3.031.407v.187l.125.156v.282l-.063.406.313-.063.25-.218-.219-.219a5.832 5.832 0 0 0-.219-.531zm-.281.406l-.188.062.031.375.281-.156zm3.656 3.344l.281.343.375.782.219.25-.125.28.219.25c-.092.007-.188 0-.282 0-.17-.364-.307-.742-.437-1.124l-.219-.25-.125-.469zM1.03 7.5c.042.1.219.406.219.406l.531.313.563.156.219.312.374.282.188-.063L3.28 9v.031l-.187.594-.156.219.03.125-.124.468.468.844.47.438.218.28-.031.657.156.344-.156.687s.002.024 0 .032A7.01 7.01 0 0 1 1 7.999c0-.167.02-.334.031-.5z" />
    <path
       id="path4"
       display="block"
       color="#000"
       d="M8 4.842v10.38l2.344-2.288 1.34 2.735c.327.74 2.033.145 1.548-.844l-1.325-2.84h2.957L8 4.842z" />
  </g>
</svg>
